X:1
T:Title
L:1/8
Q:1/4=130
M:4/4
K:C
V:1 treble nm="Church Organ, Staff"
V:1
 F2 c2 _B2 A2 | G2 F2 E2 D2 | E2 F2 F2 _B2 | _B2 A6 | A2 d2 c2 B2 | A2 G2 F2 E2 | G2 A2 c2 c2 | %7
w: By~J.~E.~Millard~~Mr.~Herbert~S.~Irons * * *|||||||
 B2 c6 | c2 d2 e2 c2 | d2 _B2 c2 A2 | A2 A2- A/ z/ G F2 | G2 A6 | A2 _B2 c2 A2 | %13
w: ||||||
 c2 d2- d/ z/ e f2 | F2 F2 G2 F2 | E2 F6 |] %16
w: |||

